X:162
T:Otter's Holt
M:C
L:1/8
K:B Dorian
de|fBBA FEFB|A2FB ABde|fBBA FEFA|BdcA B2de|!
fBBA FEFB|A2FB ABde|fbba fafe|dBAF B2:|!
Bc|d2fd adfa|bfaf efdc|d2fd adfa|bfaf e2fe|!
d2fd adfa|bfaf e2de|fBBA FEFA|BdcA B2:|!
